icons-mns/event-action.svg

<svg height="1em" width="auto" viewBox="0 0 105 105" fill="currentColor" xmlns="http://www.w3.org/2000/svg">
<path d="M58.9866 39.5033C60.6351 35.9229 61.4883 32.0328 61.4883 28.0966C61.4883 24.1605 60.6351 20.2703 58.9866 16.69C58.7135 16.0594 58.6481 15.3593 58.7996 14.6896C58.9512 14.02 59.312 13.4149 59.8307 12.9606C60.3493 12.5063 60.9993 12.226 61.6879 12.1598C62.3765 12.0935 63.0687 12.2446 63.6657 12.5915C66.0273 14.4402 67.9358 16.7958 69.248 19.4813C70.5602 22.1668 71.2419 25.1123 71.2419 28.0966C71.2419 31.0809 70.5602 34.0265 69.248 36.7119C67.9358 39.3974 66.0273 41.753 63.6657 43.6018C63.0725 43.9878 62.3678 44.1698 61.6602 44.1196C60.9525 44.0694 60.2811 43.7899 59.7493 43.3241C59.2174 42.8583 58.8547 42.2319 58.7169 41.5415C58.5791 40.8512 58.6739 40.135 58.9866 39.5033Z" />
<path d="M69.6887 50.0708C74.242 43.5411 76.6812 35.7899 76.6812 27.8501C76.6812 19.9103 74.242 12.1591 69.6887 5.62933C69.154 4.97452 68.9034 4.13583 68.9921 3.29776C69.0808 2.45969 69.5015 1.69089 70.1616 1.1605C70.8217 0.630098 71.6671 0.381547 72.5119 0.469521C73.3568 0.557495 74.1318 0.974788 74.6664 1.6296C78.5172 4.87451 81.6105 8.91135 83.732 13.4603C85.8534 18.0092 86.9522 22.9614 86.9522 27.9735C86.9522 32.9857 85.8534 37.9379 83.732 42.4868C81.6105 47.0357 78.5172 51.0726 74.6664 54.3175C74.0778 54.7765 73.343 55.0115 72.5949 54.9799C71.8469 54.9483 71.1349 54.6522 70.5877 54.1452C70.0405 53.6382 69.6943 52.9537 69.6116 52.2155C69.5288 51.4773 69.7151 50.734 70.1367 50.1202L69.6887 50.0708Z" />
<path d="M39.4737 8.6414C40.477 8.6414 41.4392 9.03679 42.1487 9.74058C42.8582 10.4444 43.2568 11.3989 43.2568 12.3942V43.5527C43.2568 44.548 42.8582 45.5025 42.1487 46.2063C41.4392 46.9101 40.477 47.3055 39.4737 47.3055C38.8107 47.3059 38.159 47.1358 37.5821 46.8117L24.8888 39.5035C24.3342 39.1697 23.6957 38.9985 23.047 39.0098H19.9111C17.089 38.8224 14.4443 37.5782 12.5123 35.5291C10.5803 33.48 9.50545 30.7791 9.50545 27.9734C9.50545 25.1678 10.5803 22.4669 12.5123 20.4178C14.4443 18.3687 17.089 17.1245 19.9111 16.9371H23.0968C23.7286 16.9392 24.3486 16.7683 24.8888 16.4433L37.5821 9.13519C38.159 8.81109 38.8107 8.64095 39.4737 8.6414ZM39.4737 0C37.2869 0.00759748 35.1408 0.586672 33.2515 1.6789L21.6533 8.29574H19.9111C14.6303 8.29574 9.56586 10.3767 5.83181 14.0809C2.09777 17.7851 0 22.809 0 28.0475C0 33.286 2.09777 38.31 5.83181 42.0141C9.56586 45.7183 14.6303 47.7993 19.9111 47.7993H21.7528L33.2515 54.3174C35.1463 55.4143 37.2998 55.9947 39.4937 56C41.6875 56.0052 43.8438 55.435 45.744 54.3471C47.6441 53.2593 49.2206 51.6925 50.3136 49.8055C51.4066 47.9185 51.9773 45.7783 51.9678 43.602V12.3942C51.9678 9.10708 50.6515 5.95456 48.3084 3.63019C45.9653 1.30582 42.7873 0 39.4737 0Z" />
</svg>

<svg xmlns="http://www.w3.org/2000/svg" width="auto" height="1em" fill="currentColor" viewBox="0 0 105 105">
    <path d="M58.987 39.503a27.3 27.3 0 0 0 2.501-11.406 27.3 27.3 0 0 0-2.501-11.407 3.24 3.24 0 0 1 .844-3.73 3.31 3.31 0 0 1 3.835-.37 19.8 19.8 0 0 1 5.582 6.891 19.62 19.62 0 0 1 0 17.23 19.8 19.8 0 0 1-5.582 6.89 3.256 3.256 0 0 1-3.917-.277 3.19 3.19 0 0 1-.763-3.82"/>
    <path d="M69.689 50.07a38.84 38.84 0 0 0 6.992-22.22c0-7.94-2.439-15.69-6.992-22.22a3.16 3.16 0 0 1 .473-4.47 3.22 3.22 0 0 1 4.504.47 34.6 34.6 0 0 1 9.066 11.83 34.3 34.3 0 0 1 3.22 14.514 34.3 34.3 0 0 1-3.22 14.513 34.6 34.6 0 0 1-9.066 11.83 3.15 3.15 0 0 1-4.078-.172 3.09 3.09 0 0 1-.451-4.025zM39.474 8.641a3.8 3.8 0 0 1 2.675 1.1 3.74 3.74 0 0 1 1.108 2.653v31.159c0 .995-.399 1.95-1.108 2.653a3.8 3.8 0 0 1-2.675 1.1c-.663 0-1.315-.17-1.892-.494L24.89 39.504a3.46 3.46 0 0 0-1.842-.494h-3.136a11.2 11.2 0 0 1-7.399-3.48 11 11 0 0 1-3.007-7.557c0-2.805 1.075-5.506 3.007-7.555a11.2 11.2 0 0 1 7.4-3.48h3.185a3.45 3.45 0 0 0 1.792-.495l12.693-7.308a3.86 3.86 0 0 1 1.892-.494m0-8.641a12.5 12.5 0 0 0-6.222 1.679l-11.6 6.617h-1.742a20 20 0 0 0-14.08 5.785A19.67 19.67 0 0 0 0 28.048a19.67 19.67 0 0 0 5.832 13.966 20 20 0 0 0 14.08 5.785h1.84l11.5 6.518a12.52 12.52 0 0 0 12.493.03 12.4 12.4 0 0 0 4.569-4.541 12.27 12.27 0 0 0 1.654-6.204V12.394c0-3.287-1.317-6.44-3.66-8.764A12.55 12.55 0 0 0 39.474 0"/>
</svg>
